!!! OTL: Berkowitz520
!!! Chapter: 1
!!! Section: IV
!!! Page: 130
!!! Mode: 
!!! Encoder: DJB
**kern
*staff1
*I"Piano
=1-
*clefC4
*k[b-e-a-d-g-]
*D-:
*M6/8
4.r
8r
8r
8A-\
=2
8f\L
8e-\
8d-\J
4e-\
[8G-/
=3
8G-/L]
8E-/
8G-/J
4d-\
8r
=4
8c/L
8D-/
8F/J
4c\
[8B-\
=5
8B-/L]
8C/
8E-/J
8B-\
8r
8A-\
=6
8f\L
8Gn\
8A-\J
4e-\
[8d-\
=7
8d-\L]
8En\
8F\J
4c\
[8B-\
=8
!!linebreak:original
8B-\L]
8An\
8B-\J
8g-\L
8.b-\
16g-\Jk
=9
8f\L
8A-\
8f\J
8f-\L
8A--\
8e-\J
=10
[4.d-\
8d-\L]
8Gn\
8A-\J
=11
4.D-/
8r
4r
==
*-
